X: 11014
T: Drunken Tinker, The
R: reel
M: 4/4
K: Amixolydian
EAAG EGDG|EA A2 fAeA|EAAG EDEF|G2BG =cGBG|
EAAG EGDG|EA A2 fAeA|EAAG EDEF|GABd dBGB||
A2eA fAeA|fAeA dBGB|A2eA fAeA|d2BG DGBG|
A2eA fAeA|fAeA dBGB|e3f g3e|d2BG DGBG||

